src/assets/images/invest-icon.svg

<svg width="35" height="35" viewBox="0 0 35 35" fill="none" xmlns="http://www.w3.org/2000/svg">
<g clip-path="url(#clip0_463_10962)">
<path d="M25.7031 12.373C20.6142 12.373 16.4746 16.5126 16.4746 21.6014C16.4746 26.6902 20.6142 30.8298 25.703 30.8298C30.7918 30.8298 34.9997 26.6902 34.9997 21.6014C34.9997 16.5126 30.7919 12.373 25.7031 12.373ZM26.7554 26.5431C26.7465 26.5463 26.7372 26.5448 26.7283 26.5479V27.7537C26.7283 28.3205 26.2697 28.7791 25.7029 28.7791C25.1362 28.7791 24.6775 28.3205 24.6775 27.7537V26.5409C24.0022 26.3128 23.3551 25.8798 22.802 25.2203C22.4375 24.7867 22.4935 24.1398 22.9281 23.7763C23.3617 23.4119 24.0106 23.4679 24.3721 23.9025C24.9148 24.5484 25.5287 24.8047 26.0534 24.6165C26.4569 24.4693 26.7283 24.0818 26.7283 23.6522C26.7283 23.0865 26.2687 22.6268 25.7029 22.6268C24.0067 22.6268 22.6268 21.2469 22.6268 19.5507C22.6268 18.312 23.3638 17.1995 24.5044 16.7169C24.5608 16.693 24.6207 16.6944 24.6776 16.674V15.4492C24.6776 14.8825 25.1362 14.4238 25.703 14.4238C26.2698 14.4238 26.7284 14.8825 26.7284 15.4492V16.6759C27.2593 16.8552 27.7771 17.1404 28.2394 17.5881C28.6459 17.9817 28.656 18.6305 28.2614 19.0381C27.8679 19.4446 27.218 19.4536 26.8114 19.0601C26.3128 18.5765 25.761 18.4102 25.3044 18.6055C24.9239 18.7667 24.6775 19.1372 24.6775 19.5508C24.6775 20.1165 25.1372 20.5762 25.7029 20.5762C27.3992 20.5762 28.779 21.9561 28.779 23.6523C28.7792 24.9409 27.966 26.1025 26.7554 26.5431Z" fill="#0000FF"/>
<path d="M1.02539 22.627C0.458623 22.627 0 23.0856 0 23.6523V33.9745C0 34.5412 0.458623 34.9999 1.02539 34.9999H4.10149V22.627H1.02539Z" fill="#0000FF"/>
<path d="M24.319 6.40011L17.1413 0.247837C16.7588 -0.0826123 16.19 -0.0826123 15.8075 0.247837L8.62988 6.40011C8.30346 6.67847 8.18629 7.13108 8.33545 7.53365C8.48366 7.93622 8.86715 8.20357 9.29679 8.20357H12.3729C12.3729 17.0683 12.3729 26.1348 12.3729 35.0001C15.0144 35.0001 16.8407 35.0001 19.5506 35.0001C20.1173 35.0001 20.5759 34.5415 20.5759 33.9747V31.6359C16.9295 29.7649 14.4237 25.9744 14.4237 21.6019C14.4237 17.2294 16.9296 13.4388 20.5759 11.5679V8.20364H23.6521C24.0816 8.20364 24.4652 7.93629 24.6134 7.53372C24.7626 7.13108 24.6455 6.67847 24.319 6.40011Z" fill="#0000FF"/>
<path d="M7.24609 14.4238C6.67933 14.4238 6.2207 14.8825 6.2207 15.4492V22.6269V34.9997C7.71846 34.9997 8.86799 34.9997 10.3222 34.9997V14.4238H7.24609Z" fill="#0000FF"/>
</g>
<defs>
<clipPath id="clip0_463_10962">
<rect width="35" height="35" fill="white"/>
</clipPath>
</defs>
</svg>

<svg xmlns="http://www.w3.org/2000/svg" width="35" height="35" fill="none" viewBox="0 0 35 35"><g fill="#00f" clip-path="url(#a)"><path d="M25.703 12.373c-5.089 0-9.228 4.14-9.228 9.228 0 5.09 4.14 9.229 9.228 9.229 5.089 0 9.297-4.14 9.297-9.23s-4.208-9.228-9.297-9.228m1.052 14.17-.027.005v1.206a1.025 1.025 0 1 1-2.05 0V26.54c-.676-.228-1.323-.661-1.876-1.32a1.023 1.023 0 0 1 .126-1.445 1.023 1.023 0 0 1 1.444.127c.543.645 1.157.902 1.681.713a1.026 1.026 0 0 0-.35-1.99 3.08 3.08 0 0 1-3.076-3.075c0-1.239.737-2.351 1.877-2.834.057-.024.117-.023.174-.043v-1.225a1.025 1.025 0 1 1 2.05 0v1.227a3.96 3.96 0 0 1 1.511.912 1.025 1.025 0 1 1-1.428 1.472c-.498-.483-1.05-.65-1.507-.454a1.025 1.025 0 0 0 .399 1.97 3.08 3.08 0 0 1 3.076 3.076c0 1.289-.813 2.45-2.024 2.891m-25.73-3.915C.46 22.627 0 23.086 0 23.652v10.322C0 34.542.459 35 1.025 35h3.076V22.627z"/><path d="M24.319 6.4 17.141.248a1.02 1.02 0 0 0-1.333 0L8.63 6.4a1.024 1.024 0 0 0 .667 1.803h3.076V35h7.178c.566 0 1.025-.459 1.025-1.025v-2.34c-3.646-1.87-6.152-5.66-6.152-10.033s2.506-8.163 6.152-10.034V8.204h3.076A1.024 1.024 0 0 0 24.32 6.4"/><path d="M7.246 14.424c-.567 0-1.025.459-1.025 1.025V35h4.101V14.424z"/></g><defs><clipPath id="a"><path fill="#fff" d="M0 0h35v35H0z"/></clipPath></defs></svg>
